X:1
T:Bound for Greenland
M:4/4
L:1/4
K:D
 E| G E G A| B e e B| B ee/2-d/2 B| e3| d| d e BA/2-G/2| A B DE/2-F/2|\
 G A E E| E3||
